source/img/cause-01.svg

<svg width="64" height="65" viewBox="0 0 64 65" fill="none" xmlns="http://www.w3.org/2000/svg">
<path d="M64 32.71C64 64.71 64 64.71 32 64.71C0 64.71 0 64.71 0 32.71C0 0.709961 0 0.709961 32 0.709961C64 0.709961 64 0.709961 64 32.71Z" fill="#F7B519"/>
<path d="M40.2466 47.6223C40.0621 47.6268 39.8791 47.5803 39.7186 47.4872L32.0116 43.4254L25.2256 47.0819C24.1186 47.6824 22.7326 47.2711 22.1326 46.1618C22.1251 46.1483 22.1176 46.1348 22.1101 46.1198C21.8746 45.6559 21.7921 45.1321 21.8731 44.6187L23.1931 36.8222L17.6761 31.2323C16.7746 30.3016 16.7746 28.8216 17.6761 27.8894C18.0271 27.5201 18.4921 27.2815 18.9961 27.2124L26.5606 26.0626L29.9251 19.0482C30.4486 17.9074 31.7971 17.406 32.9386 17.9299C33.4336 18.1565 33.8296 18.5543 34.0561 19.0482L37.4356 26.0866L45.0256 27.25C45.6391 27.3415 46.1896 27.6808 46.5496 28.1866C47.2216 29.1533 47.1196 30.4592 46.3066 31.3103L40.8151 36.8342L41.5801 41.0357C41.6866 41.6661 41.2711 42.268 40.6426 42.3866C40.0246 42.4977 39.4336 42.0864 39.3226 41.4665L38.5441 37.265C38.4136 36.495 38.6581 35.7084 39.2041 35.1515L44.7091 29.5886L37.1191 28.4103C36.3496 28.2857 35.6971 27.7753 35.3896 27.0593L32.0116 20.0509L28.5916 27.1704C28.2841 27.8879 27.6316 28.3968 26.8621 28.5213L19.2976 29.6712L24.7621 35.2251C25.3066 35.773 25.5511 36.549 25.4221 37.31L24.1021 45.1065L30.8866 41.465C31.5586 41.0867 32.3791 41.0867 33.0511 41.465L40.7476 45.5268C41.2171 45.7835 41.4556 46.3254 41.3281 46.8463C41.2111 47.3671 40.7521 47.7379 40.2196 47.7469L40.2466 47.6223Z" fill="#343A41"/>
</svg>

<svg width="64" height="65" fill="none" xmlns="http://www.w3.org/2000/svg"><path d="M64 32.71c0 32 0 32-32 32s-32 0-32-32 0-32 32-32 32 0 32 32z" fill="#F7B519"/><path d="M40.247 47.622a1.004 1.004 0 01-.528-.135l-7.707-4.062-6.786 3.657a2.28 2.28 0 01-3.093-.92l-.023-.042a2.463 2.463 0 01-.237-1.501l1.32-7.797-5.517-5.59a2.404 2.404 0 010-3.343 2.24 2.24 0 011.32-.677l7.565-1.15 3.364-7.014a2.272 2.272 0 014.131 0l3.38 7.039 7.59 1.163c.613.091 1.164.43 1.524.937.672.966.57 2.272-.243 3.123l-5.492 5.524.765 4.202a1.174 1.174 0 01-.937 1.35 1.137 1.137 0 01-1.32-.92l-.779-4.201a2.44 2.44 0 01.66-2.114l5.505-5.562-7.59-1.179a2.28 2.28 0 01-1.73-1.35l-3.377-7.01-3.42 7.12a2.277 2.277 0 01-1.73 1.351l-7.564 1.15 5.464 5.554a2.39 2.39 0 01.66 2.085l-1.32 7.796 6.785-3.641a2.206 2.206 0 012.164 0l7.697 4.062c.47.256.708.798.58 1.32-.117.52-.576.89-1.108.9l.027-.125z" fill="#343A41"/></svg>
